X:8214
T:Johnny Ward's
R:Reel
S:Fisher Street
H:
N:
D:Fisher Street: Out in the Night
Z:Adrian Scahill
M:4/4
L:1/8
K:D
A2FD AFDF|E2 CE A,3F|A2FD A,DFA|decd BdcB:||\
BEE2 BdcB|A2FD A,DFA|BEE2 Bdce|decd BdcA|\
BEE2 BdcB|A2FD A,DFA|BEE2 Bdce|decd BdcB||


